docs/img/promo/promo-star-left.svg

<svg width="581" height="927" viewBox="0 0 581 927" fill="none" xmlns="http://www.w3.org/2000/svg">
<path d="M-49.8576 130.92C-48.1271 116.754 -31.0799 110.504 -20.6034 120.195L133.137 262.406C136.475 265.494 140.67 267.498 145.17 268.154L327.775 294.771C342.36 296.897 347.945 314.998 337.093 324.972L206.139 445.329C202.352 448.809 199.872 453.481 199.112 458.568L166.854 674.34C164.688 688.828 146.744 694.402 136.751 683.691L-7.22786 529.371C-11.1258 525.193 -16.4672 522.655 -22.1681 522.271L-209.11 509.685C-224.235 508.667 -231 490.209 -220.115 479.659L-81.0238 344.846C-77.3289 341.264 -74.9732 336.525 -74.3493 331.417L-49.8576 130.92Z" stroke="white" stroke-opacity="0.3" stroke-width="5"/>
<path d="M-8.20718 226.495C-7.46555 220.424 -0.159621 217.745 4.33032 221.898L106.203 316.131C108.057 317.847 110.388 318.96 112.888 319.324L234.991 337.122C241.242 338.034 243.635 345.791 238.984 350.066L151.163 430.78C149.059 432.714 147.681 435.31 147.259 438.136L125.857 581.288C124.929 587.497 117.239 589.886 112.956 585.296L17.2135 482.676C15.048 480.355 12.0806 478.945 8.91336 478.732L-116.607 470.281C-123.089 469.845 -125.988 461.934 -121.323 457.413L-28.1842 367.138C-26.1315 365.148 -24.8228 362.515 -24.4761 359.678L-8.20718 226.495Z" stroke="white" stroke-opacity="0.6" stroke-width="5"/>
<path d="M-76.6575 52.0779C-74.927 37.9118 -57.8798 31.6623 -47.4033 41.3532L153.487 227.179C156.825 230.266 161.021 232.27 165.52 232.926L406.21 268.01C420.796 270.136 426.38 288.238 415.528 298.212L242.436 457.296C238.649 460.776 236.169 465.449 235.409 470.535L193.208 752.814C191.042 767.302 173.098 772.876 163.105 762.165L-25.6685 559.833C-29.5664 555.655 -34.9078 553.117 -40.6088 552.733L-287.991 536.078C-303.116 535.06 -309.881 516.602 -298.996 506.052L-115.411 328.113C-111.716 324.531 -109.36 319.792 -108.736 314.685L-76.6575 52.0779Z" stroke="white" stroke-opacity="0.2" stroke-width="5"/>
</svg>

<svg width="581" height="927" fill="none" xmlns="http://www.w3.org/2000/svg"><path d="M-49.858 130.92c1.73-14.166 18.778-20.416 29.255-10.725l153.74 142.211a22.498 22.498 0 0012.033 5.748l182.605 26.617c14.585 2.126 20.17 20.227 9.318 30.201L206.139 445.329a22.493 22.493 0 00-7.027 13.239L166.854 674.34c-2.166 14.488-20.11 20.062-30.103 9.351L-7.228 529.371a22.5 22.5 0 00-14.94-7.1l-186.942-12.586c-15.125-1.018-21.89-19.476-11.005-30.026l139.091-134.813a22.503 22.503 0 006.675-13.429l24.491-200.497z" stroke="#fff" stroke-opacity=".3" stroke-width="5"/><path d="M-8.207 226.495c.741-6.071 8.047-8.75 12.537-4.597l101.873 94.233a12.49 12.49 0 006.685 3.193l122.103 17.798c6.251.912 8.644 8.669 3.993 12.944l-87.821 80.714a12.5 12.5 0 00-3.904 7.356l-21.402 143.152c-.928 6.209-8.618 8.598-12.901 4.008l-95.743-102.62a12.499 12.499 0 00-8.3-3.944l-125.52-8.451c-6.482-.436-9.381-8.347-4.716-12.868l93.139-90.275a12.503 12.503 0 003.708-7.46l16.269-133.183z" stroke="#fff" stroke-opacity=".6" stroke-width="5"/><path d="M-76.657 52.078c1.73-14.166 18.777-20.416 29.254-10.725l200.89 185.826a22.507 22.507 0 0012.033 5.747l240.69 35.084c14.586 2.126 20.17 20.228 9.318 30.202L242.436 457.296a22.496 22.496 0 00-7.027 13.239l-42.201 282.279c-2.166 14.488-20.11 20.062-30.103 9.351L-25.668 559.833a22.5 22.5 0 00-14.94-7.1l-247.383-16.655c-15.125-1.018-21.89-19.476-11.005-30.026l183.585-177.939a22.503 22.503 0 006.675-13.428l32.079-262.607z" stroke="#fff" stroke-opacity=".2" stroke-width="5"/></svg>
